X:1
T:Title
%%score { ( 1 3 ) | 2 }
L:1/8
M:9/8
K:Bb
V:1 treble nm="Grand Piano"
V:3 treble 
V:2 bass 
V:1
 z3 z3[Q:1/4=100] [DF]3 | [DF]3- [DF][DG][DA] [DB][DA][DG] | [_DB][DA][DG] [=DF]3 [DB]2 [Fd] | %3
 c3- cBA AGA | [DB]6 [DF]3 | [DF]3- [DF][DG][DA] [DB][DA][DG] | [_DB][DA][DG] [=DF]3 [DB]2 [Fd] | %7
 [Fc]3- [Fc][DFB][CFA] [B,=EG][CEA][B,EG] |[M:3/4] F6 |[M:3/8] F3 |[M:9/8] FAc e3 e3 | %11
 [Ge][Fd][Ec] [DB]3 [FA]3 | G3- GAB [=Ed]2 [Ec] | c6 z3 | z3 [DB]3 z3 | %15
[M:21/16] de/-e/[_Af][Ge]3/2- [Ge]3 G3 | %16
[M:9/8] F3- FBe d2 c[Q:1/4=97][Q:1/4=94][Q:1/4=91][Q:1/4=88][Q:1/4=84][Q:1/4=81][Q:1/4=78] | %17
[M:15/16] [DB]3/2-[DB]3/2-[DB]3/2- [DB]3 |] %18
V:2
 z3 z3 [B,,B,]3 | [B,,B,]3- [B,,B,][B,,B,][B,,B,] [B,,F,][B,,F,][B,,F,] | %2
 [B,,=E,][B,,E,][B,,G,] [B,,B,]3 [B,,F,]2 [B,,B,] | %3
 [F,A,E]3- [F,A,E][F,B,E][F,CE] [F,CE][F,CE][F,E] | [B,,F,]6 [B,,B,]3 | %5
 [B,,B,]3- [B,,B,][B,,B,][B,,B,] [B,,F,][B,,F,][B,,F,] | %6
 [B,,=E,][B,,E,][B,,G,] [B,,B,]3 [B,,F,]2 [B,,B,] | [C,A,]3- [C,A,]C,C, C,C,C, |[M:3/4] [F,A,]6 | %9
[M:3/8] [F,A,]3 |[M:9/8] [F,A,][F,CF][F,EF] [F,CF]3 [F,CF]3 | %11
 [B,,B,][B,,B,][B,,B,] [B,,B,]3 [D,B,]3 | [E,B,E]3- [E,B,E][E,A,E][E,G,E] [C,B,]2 [C,B,] | %13
 [F,A,F]2 [G,B,] [F,A,]3 [F,A,E]3 | [B,,B,][B,,B,][B,,B,] .[B,,F,]3[K:treble] [F,A,F]3 | %15
[M:21/16] [B,F][B,CF]/-[B,CF]/[K:bass][D,B,][E,B,]3/2- [E,B,]3 [E,B,E]3 | %16
[M:9/8] [F,B,D]3- [F,B,D][F,B,D][F,B,F] [F,B,F]2 [F,A,E] | %17
[M:15/16] [B,,B,]3/2-[B,,B,]3/2-[B,,B,]3/2- [B,,B,]3 |] %18
V:3
 x9 | x9 | x9 | x9 | x9 | x9 | x9 | x9 |[M:3/4] x6 |[M:3/8] x3 |[M:9/8] x9 | x9 | x9 | %13
 z2 =E F3 F3 | [DF][DG][DA] z2 B, c3 |[M:21/16] x21/2 |[M:9/8] x9 |[M:15/16] x15/2 |] %18

